public/svgs/podcast.svg

<svg viewBox="0 0 24 24" fill="current" xmlns="http://www.w3.org/2000/svg">
    <path
        d="M6.45001 2.00002C3.98939 1.99314 1.99314 3.98939 2.00002 6.45001V17.55C1.99314 20.0106 3.98939 22.0069 6.45001 22H17.55C20.0106 22.0069 22.0069 20.0106 22 17.55V6.45001C22.0069 3.98939 20.0106 1.99314 17.55 2.00002H6.45001ZM11.8856 4.13814C13.8325 4.13814 15.5931 4.89064 16.935 6.29626C17.9544 7.35438 18.5269 8.47688 18.82 9.95563C18.9206 10.4475 18.9206 11.7881 18.8256 12.3412C18.5131 14.1019 17.55 15.6781 16.1275 16.7556C15.62 17.14 14.3794 17.8075 14.1806 17.8075C14.1056 17.8075 14.1 17.7325 14.1325 17.4231C14.1944 16.9281 14.2525 16.8275 14.5325 16.71C14.9781 16.525 15.74 15.9806 16.2056 15.5156C17.0187 14.7012 17.5987 13.6831 17.8787 12.5662C18.0544 11.8787 18.0312 10.3519 17.8394 9.64625C17.2337 7.39938 15.3975 5.65564 13.1519 5.18626C12.5012 5.05314 11.3125 5.05314 10.6519 5.18626C8.37938 5.65564 6.49751 7.48813 5.92501 9.79313C5.77189 10.4206 5.77189 11.9481 5.92501 12.5731C6.30563 14.1 7.29251 15.4987 8.58438 16.3325C8.83876 16.5019 9.14438 16.6744 9.27188 16.7269C9.55125 16.8469 9.61375 16.9487 9.665 17.4394C9.6975 17.7425 9.69063 17.8269 9.62 17.8269C9.57438 17.8269 9.2325 17.68 8.87063 17.5075L8.83813 17.4819C6.77751 16.4694 5.45876 14.7544 4.97751 12.4719C4.86064 11.8825 4.83751 10.48 4.95501 9.93938C5.25439 8.48751 5.82751 7.35501 6.78063 6.35251C8.15501 4.90314 9.9225 4.13814 11.8881 4.13814H11.8856ZM12 6.48251C12.3381 6.48563 12.6675 6.51501 12.9206 6.57001C15.2425 7.08751 16.8856 9.40938 16.5662 11.7131C16.4394 12.6437 16.1206 13.4062 15.5544 14.1156C15.2744 14.4737 14.5937 15.0731 14.4737 15.0731C14.4537 15.0731 14.4344 14.845 14.4344 14.5712V14.0662L14.7794 13.6531C16.0875 12.0875 15.9937 9.9 14.5675 8.46813C14.0144 7.90813 13.3725 7.57876 12.5456 7.43001C12.0125 7.32938 11.9012 7.32938 11.3413 7.42313C10.4888 7.56001 9.83063 7.88813 9.24438 8.46813C7.81251 9.8875 7.71751 12.0875 9.02688 13.6531L9.37188 14.0662V14.5744C9.37188 14.8544 9.34875 15.0787 9.31938 15.0787C9.29688 15.0787 9.10125 14.9456 8.89251 14.7794L8.86313 14.7694C8.17001 14.2162 7.55813 13.2362 7.30376 12.2725C7.15126 11.69 7.15126 10.5869 7.31063 10.0069C7.73063 8.44126 8.88626 7.22688 10.485 6.65751C10.8269 6.53688 11.4281 6.47188 11.995 6.48188L12 6.48251ZM11.8894 8.97251C12.15 8.97251 12.4069 9.025 12.5962 9.1225C12.9994 9.33438 13.3356 9.74063 13.4619 10.1706C13.8494 11.4856 12.4562 12.6381 11.1925 12.0487H11.1831C10.5875 11.7719 10.2681 11.2513 10.2613 10.5738C10.2613 9.96188 10.5994 9.43125 11.1888 9.11876C11.3744 9.02126 11.6319 8.97188 11.8919 8.97188L11.8894 8.97251ZM11.8825 12.915C12.7069 12.9119 13.3019 13.2044 13.5231 13.7219C13.6887 14.1094 13.6275 15.33 13.3406 17.3062C13.1487 18.6862 13.0412 19.0344 12.775 19.2694C12.4069 19.5944 11.8894 19.6862 11.3944 19.51H11.3919C10.7963 19.295 10.6688 19.005 10.4213 17.3056C10.1388 15.33 10.0763 14.1087 10.2431 13.7212C10.4606 13.2069 11.0531 12.9181 11.8831 12.9144L11.8825 12.915Z"
        fill="current" />
</svg>

<svg xmlns="http://www.w3.org/2000/svg" fill="current" viewBox="0 0 24 24"><path d="M6.45 2A4.437 4.437 0 0 0 2 6.45v11.1A4.437 4.437 0 0 0 6.45 22h11.1A4.437 4.437 0 0 0 22 17.55V6.45A4.437 4.437 0 0 0 17.55 2zm5.436 2.138c1.947 0 3.707.753 5.049 2.158 1.02 1.058 1.592 2.18 1.885 3.66.1.492.1 1.832.006 2.385a7.1 7.1 0 0 1-2.698 4.415c-.508.384-1.749 1.052-1.947 1.052-.075 0-.081-.075-.048-.385.061-.495.12-.595.4-.713.445-.185 1.207-.73 1.673-1.194a6.37 6.37 0 0 0 1.673-2.95c.175-.687.152-2.214-.04-2.92-.605-2.247-2.441-3.99-4.687-4.46-.65-.133-1.84-.133-2.5 0-2.273.47-4.154 2.302-4.727 4.607-.153.628-.153 2.155 0 2.78.38 1.527 1.368 2.926 2.66 3.76.254.169.56.341.687.394.28.12.342.222.393.712.033.303.026.388-.045.388-.046 0-.387-.147-.75-.32l-.032-.025c-2.06-1.013-3.38-2.728-3.86-5.01-.117-.59-.14-1.992-.023-2.533.3-1.451.873-2.584 1.826-3.586 1.374-1.45 3.141-2.215 5.107-2.215zM12 6.483c.338.003.668.032.92.087 2.323.518 3.966 2.84 3.646 5.143-.127.93-.445 1.693-1.012 2.403-.28.358-.96.957-1.08.957-.02 0-.04-.228-.04-.502v-.505l.345-.413c1.308-1.565 1.215-3.753-.211-5.185-.554-.56-1.195-.89-2.022-1.038-.534-.1-.645-.1-1.205-.007-.852.137-1.51.465-2.097 1.045-1.431 1.42-1.526 3.62-.217 5.185l.345.413v.508c0 .28-.023.505-.053.505-.022 0-.218-.133-.426-.3l-.03-.01c-.693-.553-1.305-1.533-1.56-2.496-.152-.583-.152-1.686.008-2.266.42-1.566 1.575-2.78 3.174-3.35.342-.12.943-.185 1.51-.175zm-.11 2.49c.26 0 .517.052.706.15.403.211.74.618.866 1.048.387 1.315-1.006 2.467-2.27 1.878h-.009c-.595-.277-.915-.798-.922-1.475 0-.612.338-1.143.928-1.455.185-.098.443-.147.703-.147zm-.008 3.942c.825-.003 1.42.29 1.641.807.166.387.104 1.608-.182 3.584-.192 1.38-.3 1.728-.566 1.963-.368.325-.886.417-1.38.241h-.003c-.596-.215-.723-.505-.97-2.204-.283-1.976-.346-3.197-.179-3.585.218-.514.81-.803 1.64-.807z"/></svg>
